assets/svg/gift_icon.svg

<svg fill="none" height="161" viewBox="0 0 161 161" width="161" xmlns="http://www.w3.org/2000/svg" xmlns:xlink="http://www.w3.org/1999/xlink"><linearGradient id="a"><stop offset="0" stop-color="#e4002b"/><stop offset="1" stop-color="#7200a6"/></linearGradient><linearGradient id="b" gradientUnits="userSpaceOnUse" x1="29.6999" x2="137.023" xlink:href="#a" y1="153.271" y2="153.271"/><linearGradient id="c" gradientUnits="userSpaceOnUse" x1="20.4995" x2="147.5" xlink:href="#a" y1="66.1709" y2="66.1709"/><path d="m15.7773 146.831c0 3.542 2.8983 6.44 6.44 6.44h116.2417c3.704 0 6.44-2.898 6.44-6.44v-68.4248h-129.1217z" fill="url(#b)"/><path d="m150.535 36.2249h-18.193c1.771-4.025 2.093-8.6942.966-13.0409-1.771-6.9233-6.924-12.3967-13.846-14.48999-6.762-2.09327-14.168-.64411-19.6425 4.02499l-19.32 16.422-19.32-16.422c-5.4741-4.66912-12.88-6.11826-19.642-4.02499-6.7617 2.09329-11.9141 7.56669-13.846 14.48999-1.1268 4.5083-.6441 9.0159.9659 13.0409h-18.193c-3.54172 0-6.43999 2.8982-6.43999 6.44v17.066c0 3.5417 2.89827 6.44 6.43999 6.44h139.9086c3.542 0 6.44-2.8983 6.44-6.44v-16.905c.161-3.5418-2.737-6.6009-6.279-6.6009zm-42.182-13.685c2.093-1.7709 4.669-2.2542 7.245-1.4492 2.575.805 4.346 2.7368 5.151 5.3133.644 2.2541.161 4.6691-1.288 6.6009-1.449 1.9317-3.703 2.8982-5.957 2.8982h-20.7686zm-67.9424 3.8641c.6441-2.5759 2.5759-4.5083 5.1518-5.3133.805-.3217 1.61-.3217 2.415-.3217 1.7708 0 3.5417.6441 4.83 1.7708l15.778 13.3633h-20.769c-2.415 0-4.5083-1.1268-5.9568-2.8983-1.61-1.7708-2.0932-4.1858-1.4491-6.6008z" fill="url(#c)"/></svg>

<svg width="161" height="161" viewBox="0 0 161 161" fill="none" xmlns="http://www.w3.org/2000/svg">
<path d="M15.7773 146.831C15.7773 150.373 18.6756 153.271 22.2173 153.271H138.459C142.163 153.271 144.899 150.373 144.899 146.831V78.4062H15.7773V146.831Z" fill="url(#paint0_linear_494_2146)"/>
<path d="M150.535 36.2249H132.342C134.113 32.1999 134.435 27.5307 133.308 23.184C131.537 16.2607 126.384 10.7873 119.462 8.69401C112.7 6.60074 105.294 8.0499 99.8195 12.719L80.4995 29.141L61.1795 12.719C55.7054 8.04988 48.2995 6.60074 41.5375 8.69401C34.7758 10.7873 29.6234 16.2607 27.6915 23.184C26.5647 27.6923 27.0474 32.1999 28.6574 36.2249H10.4644C6.92268 36.2249 4.02441 39.1231 4.02441 42.6649V59.7309C4.02441 63.2726 6.92268 66.1709 10.4644 66.1709H150.373C153.915 66.1709 156.813 63.2726 156.813 59.7309V42.8259C156.974 39.2841 154.076 36.225 150.534 36.225L150.535 36.2249ZM108.353 22.5399C110.446 20.769 113.022 20.2857 115.598 21.0907C118.173 21.8957 119.944 23.8275 120.749 26.404C121.393 28.6581 120.91 31.0731 119.461 33.0049C118.012 34.9366 115.758 35.9031 113.504 35.9031H92.7354L108.353 22.5399ZM40.4106 26.404C41.0547 23.8281 42.9865 21.8957 45.5624 21.0907C46.3674 20.769 47.1724 20.769 47.9774 20.769C49.7482 20.769 51.5191 21.4131 52.8074 22.5398L68.5854 35.9031H47.8164C45.4014 35.9031 43.3081 34.7763 41.8596 33.0048C40.2496 31.234 39.7664 28.819 40.4105 26.404L40.4106 26.404Z" fill="url(#paint1_linear_494_2146)"/>
<defs>
<linearGradient id="paint0_linear_494_2146" x1="29.6999" y1="153.271" x2="137.023" y2="153.271" gradientUnits="userSpaceOnUse">
<stop stop-color="#E4002B"/>
<stop offset="1" stop-color="#7200A6"/>
</linearGradient>
<linearGradient id="paint1_linear_494_2146" x1="20.4995" y1="66.1709" x2="147.5" y2="66.1709" gradientUnits="userSpaceOnUse">
<stop stop-color="#E4002B"/>
<stop offset="1" stop-color="#7200A6"/>
</linearGradient>
</defs>
</svg>
